X:156
T:Fields of November
C:Norman Blake
N:Transcribed by Greg Rohrer
R:bluegrass
L:1/8
Q:1/4=125
M:4/4
K:C
"Part A"z4 G2 A2 | "G"[d4B4] [d2B2] A2 | "C"[c4G4] [c3E3][cG] | "D"[c2E2] D6 | 
D8 | "C"E4 ^F2 G2 | E4 [d2A2] [d2B2] | "D"[d8A8] | [d4A4] G2 A2 | "G"[d4B4] [d2B2] A2 | 
"C"[c4G4] [c3E3][cG] | "D"[c2E2] D6 | D8 | "C"E4 ^F2 G2 | "D"[d4A4] [d2B2] [d2A2] | 
"G"[B8G8] | [B4G4] [B2D2] "Part B"[c2D2] | "G"[d4D4] [d3D3][cD] | [B4D4] g3a | 
g4 d2 c2 | [B4D4] [B2D2] [c2D2] | [d4D4] [d4D4] | [g4d4] [g4d4] | "D"a4 (3^fgf e2 | 
[d4D4] [d2D2] [c2D2] | "G"[B4D4] [c2D2] e2 | [d4D4] g2 ^f2 | {^g}"C"a3=g ^f3g | 
"G"[d4D4] "C"[c4D4] | "G"[B4D4] BA G2 | "D"D4 (3BcB A2 | "G"G2 DG BG Bc | "G"[d4D4] "C"[c4D4] | 
"G"[B4D4] [BD]A G2 | "D"[A4D4] (3[BD]cB A2 | "G"[B8G8] | 


